X: 22408
T: Ladies In The Center
R: polka
M: 2/4
K: Dmajor
|:DD FA|BA FA|dA de|fd/f/ e2|
DD FA|BA FA|dB AF|EF D2:|
|:fa af|ed BA|dc/B/ AA|fd/f/ e2|
fa af|ed BA|dc/B/ AF|EF D2:|

